X:1
T:Title
%%score { ( 1 4 ) | ( 2 3 ) }
L:1/8
M:3/4
K:Ab
V:1 treble nm="Grand Piano"
V:4 treble 
V:2 bass 
V:3 bass 
V:1
 z2 z2[Q:1/4=100] [CE][CE] | [CA]3 [CE] [Ec][EA] | [EG]2 F2 FF | [Fd]3 [Fc] [FB][FA] | %4
[M:2/4] c2 B2 |[M:1/4] cd |[M:3/4] e3 A dc | B2 F2 [FB][FA] | Gd F2 G2 |[M:2/4] [A,CA]4 | %10
[M:1/4] z2 |[M:3/4] z2 G2 A2 | c2 .B2 EE | z2 [EA]2 B2 |[M:2/4] c4 |[M:1/4] E2 |[M:3/4] z2 B2 z2 | %17
 [Fe]2 .[Fd]2 cB | A,A, c2 B2 |[M:2/4] [CA]4 |] %20
V:2
 z2 z2 [A,,A,][A,,A,] | [A,,E,]3 [A,,A,] [A,,A,][C,A,] | [D,A,]2 [D,A,D]2 [D,A,D][D,A,D] | %3
 [B,,B,]3 [C,=A,] [D,B,][=D,B,] |[M:2/4] [E,E]4 |[M:1/4] [A,E][A,B,E] | %6
[M:3/4] [A,CE]3 [A,CE] [G,B,E][A,E] | [D,F,D]2 [D,B,D]2 [D,B,][D,B,] | %8
 [E,B,E][E,G,E] [E,B,D]2 [E,B,D]2 |[M:2/4] A,,4 |[M:1/4] E2 |[M:3/4] z2 B,2 C2 | %12
 [E,A,E]2 .[E,G,E]2 z2 | z2 z2 E2 |[M:2/4] [A,E]4 |[M:1/4] z2 |[M:3/4][K:treble] z2 G2[K:bass] z2 | %17
 [D,A,]2 .[D,A,]2 ED | E,E, [E,A,E]2 [E,G,D]2 |[M:2/4] [A,,A,]4 |] %20
V:3
 x6 | x6 | x6 | x6 |[M:2/4] A,2 G,2 |[M:1/4] x2 |[M:3/4] x6 | x6 | x6 |[M:2/4] x4 |[M:1/4] x2 | %11
[M:3/4] C2 z D, [C,E,]A,, | x6 | D2 C,C, [E,G,]E, |[M:2/4] x4 |[M:1/4] x2 | %16
[M:3/4][K:treble] A2 z[K:bass] E, A,2 | x6 | x6 |[M:2/4] x4 |] %20
V:4
 x6 | x6 | x6 | x6 |[M:2/4] x4 |[M:1/4] x2 |[M:3/4] x6 | x6 | x6 |[M:2/4] x4 |[M:1/4] x2 | %11
[M:3/4] A2 z E, z A, | x6 | B2 A,A, z G, |[M:2/4] x4 |[M:1/4] x2 |[M:3/4] c2 z B, [_Gc]2 | x6 | %18
 [CA]2 z2 z2 |[M:2/4] x4 |] %20

